X:1
T:Grace et vertu
T:Grace et  vertu 3v
T:Tielman Susato
T:Source : Le premier Livre des Chansons à 3 parties--Anvers---T.Susato---1544. Editor André Vierendeels (02/02:15).
T:Notes : Original clefs : C1, C3, F4 Original note values have been halved Editorial accidentals above the staff Notice above the T voice : "Chantez a deux si bon vous samble, puis chanterez tous trois ensamble" 
C:Tielman Susato
%%score [ 1 2 3 ]
L:1/8
Q:1/4=90
M:2/2
K:C
V:1 treble nm="Superius" snm="S"
V:2 treble-8 nm="Tenor" snm="T"
V:3 bass nm="Bassus" snm="B"
V:1
 z8 | A4 A2 A2 | GF ED C2 c2 | c2 c2 B2 GA | Bc d3 c AB | c3 B GA B2- | BA A4 G2 | A4 z2 A2 | %8
w: |Gra- c'et ver-|tu, _ _ _ _ bon-|té, beaul- té, no- *|* * bles- * * *|||se, sont|
 A2 A2 B4 | G2 G2 c3 B | A3 G FE D2 | E2 z E E2 E2 | F4 D2 D2 | G3 F E2 F2- | FE E4 D2 | E8 | %16
w: en ma- my-|e, point ne le|veulx _ _ _ ce-|ler, sont en ma|my- e, point|ne _ _ le|_ _ veulx ce-|ler,|
 z2 A2 A2 A2 | c3 c B2 G2 | B2 B2 A2 z A | AA c3 cBG | B2 A2 A2 z E | EE G3 GFD | F2 E4 D2 | E8 | %24
w: trop my des-|plaist d'en ou- ir|mal par- ler, trop|my des- plaist d'en ou- ir|mal par- ler, trop|my des- plaist d'en ou- ir|mal par- *|ler|
 z2 A2 A2 G2 | A2 c2 c2 c2 | B4 G2 c2- | cB AG F2 G2- | GF ED C2 c2- | c2 BA GF GA | B2 A4 G2 | %31
w: ie hays cel-|luy qui l'hon- neur|d'el- le bles-|||||
 A4 E2 G2 | F2 E2 z2 A2 | A2 G2 A2 c2 | c2 c2 B4 | G2 c3 B AG | F2 G3 F ED | C2 c4 BA | %38
w: se, ie hays|cel- luy, ie|hays cel- luy qui|l'hon- neur d'el-|le bles- * * *|||
 GE A3 G GF | A8 |] %40
w: |se.|
V:2
 e4 e2 e2 | d2 cB ABcd | e4 A3 B | cdef g3 f | e2 d2 f3 e | cd e3 dBc | dcBA B4 | A8 | %8
w: Gra- c'et ver-|tu, _ _ _ _ _ _|bon té _|_ _ _ _ et- _|_ beaul- té, _|_ _ no- * * *|* * * * bles-|se|
 z2 d2 d2 d2 | e4 c2 c2 | f3 e d2 d2 | c4 z2 A2 | A2 A2 B4 | G2 c2 cBAG | AGFE F4 | E4 z2 A2 | %16
w: sont en ma|my- e, point|ne le veulx ce-|ler, sont|en ma my|e, ma- my- * * *||e, trop|
 A2 A2 d2 d2 | c3 d e2 e2 | d2 z d dd f2- | ffec e2 e2 | d4 z AAA | c3 c BGAB | AGGF/E/ F4 | %23
w: my des- plaist d'en|ou- ir mal par-|ler, trop my des- plaist|_ d'en ou- ir mal par-|ler, trop my des-|plaist d'en ou- ir mal par-||
 E2 A2 A2 G2 | A2 d2 f2 e2 | d2 cB ABcd | e2 e4 e2 | c2 d3 cBA | G2 g3 fed | cd e3 dcB/A/ | %30
w: ler, ie hays cel-|luy, ie hays ce-|luy _ _ _ _ _ _|qui l'hon- neur|d'el- * * * *|le bles- * * *||
 G2 A2 B4 | z2 A2 A2 G2 | AA c2 B2 AB | cd e2 f2 ed | cBcd e2 e2- | e2 e2 c2 d2- | dcBA G2 AB | %37
w: * * se,|ie hays cel-|luy, ie hays cel- luy _|_ _ _ _ _ _|* * * * qui l'hon-|neur d'el- le bles-||
 cd e4 dc | B2 A2 B4 | A8 |] %40
w: ||se.|
V:3
 z8 | D,4 F,2 F,2 | E,4 F,4 |"^#" A,2 A,2 G,2 E,2 | G,3 F, D,E, F,2- | F,E, C,D, E,F, G,2- | %6
w: |Gra- c'et ver-|tu, gra-|c'et ver- tu, bon-|te, _ _ _ beaul-|* * * * * * té,|
 G,2 A,2 E,4 | A,,4 z2 D,2 | D,2 D,2 G,4 | C,4 C,2 F,2- | F,E, D,3 C, B,,2 | A,,2 z A,, A,,2 A,,2 | %12
w: _ no- bles-|se sont|en ma- my-|* e, point|_ ne le _ _|veulx, ne le veulx|
 D,4 G,,2 G,2- | G,F, E,D, C,2 D,2- | D,2 C,2 D,2 A,2 | A,2 G,2 C3 B, | A,G, F,E, D,2 D,2 | %17
w: ce- ler, ne|_ _ _ _ le fault|_ ce- ler, trop|my des- plaist- den|ou- * * * ir mal|
 A,4 E,E,E,E, | G,3 G, F,2 D,2 | F,G, A,2 E,E,E,E, | G,2 D,2 D,D,A,A,, | A,,A,, E,3 E, D,2- | %22
w: par- ler, trop- my des-|plaist- den ou- ir|mal _ par- ler, trop my des-|plaist, trop my des- plaist, trop|my des- plaist den ou-|
 D,2 C,2 D,2 D,2 | A,,2 z A, C2 B,2 | A,2 z D, D,2 E,2 | F,2 A,2 A,2 A,2 | E,6 C,2 | %27
w: * ir mal par-|ler, ie hays cel-|luy, ie hays cel-|luy qui l'hon- neur|d'el- le|
 F,3 E, D,2 G,F, | E,D, C,2 C3 B, | A,2 G,F, E,4- | E,2 F,2 E,4 | A,,2 z A, C2 B,2 | %32
w: bles- * * * *||||se, ie hays cel-|
 A,2 E,2 G,2 F,2- | F,2 E,2 z2 A,2 | A,2 A,2 E,4 |"^#""^#""^#" E,2 A,3 G, F,E, | D,2 E,3 C, C2- | %37
w: luy, ie hays cel-|* luy qui|l'hon- neur d'el-|le bles- * * *||
 CB, A,G,/F,/ E,4- | E,2 F,2 E,4 | A,,8 |] %40
w: ||se.|

